src/images/svg/lamp.svg

<svg width="102" height="120" viewBox="0 0 102 120" fill="none" xmlns="http://www.w3.org/2000/svg">
<path fill-rule="evenodd" clip-rule="evenodd" d="M51.1056 23.8842C48.6636 23.8842 46.2356 24.2242 43.8896 24.8982C34.2816 27.6482 27.2216 34.5502 24.5156 43.8382C21.7656 53.2902 23.9656 63.8822 30.1196 70.8202C31.0496 71.8682 31.9976 72.8962 32.9476 73.9262C33.8956 74.9482 34.7756 75.9042 35.6416 76.8742C37.8516 79.3442 39.0276 81.9142 39.2336 84.7322L39.3676 86.5142C39.5216 88.5522 39.6596 90.4082 39.7416 92.2682C39.8256 94.1302 40.2396 94.5322 42.0656 94.5362L56.6876 94.5402C57.8916 94.5402 59.0936 94.5382 60.2996 94.5322C61.6676 94.5242 62.1976 93.9982 62.2496 92.5922L62.3136 91.0362C62.3616 89.9482 62.4016 89.0342 62.4136 88.1222C62.4856 82.7662 64.2836 78.5282 67.9096 75.1662C68.5076 74.6122 69.0576 74.0102 69.6036 73.4082C69.9396 73.0422 70.2716 72.6762 70.6136 72.3242C77.0236 65.6682 79.6116 57.2882 78.2996 47.4262C76.5376 34.2242 64.5936 23.8842 51.1056 23.8842ZM44.4034 115.738L57.6154 115.74C58.8954 115.744 59.6654 116.526 59.6755 117.828C59.6794 118.428 59.5174 118.942 59.2054 119.314C58.8314 119.756 58.2714 119.992 57.5774 119.992L50.8254 120L44.3634 119.992C43.1074 119.99 42.3194 119.18 42.3093 117.88C42.3054 117.27 42.4594 116.774 42.7654 116.408C43.1314 115.972 43.6974 115.742 44.4034 115.738ZM59.2404 109.346C60.8344 109.352 61.7924 110.134 61.8065 111.436C61.8124 112.036 61.6104 112.55 61.2204 112.922C60.7564 113.364 60.0564 113.598 59.1944 113.6L50.7844 113.608L42.7364 113.6C41.1724 113.596 40.1924 112.788 40.1783 111.488C40.1724 110.878 40.3624 110.38 40.7464 110.014C41.2004 109.58 41.9064 109.348 42.7844 109.346H59.2404ZM56.4466 102.421C57.6746 102.421 58.9006 102.423 60.1286 102.429C61.1226 102.435 61.9186 102.667 62.4286 103.101C62.8506 103.463 63.0626 103.949 63.0567 104.553C63.0466 105.857 61.9046 106.671 60.0766 106.675C57.0586 106.681 54.0406 106.683 51.0226 106.683L41.9766 106.677C40.9326 106.675 40.1006 106.437 39.5706 105.987C39.1406 105.623 38.9246 105.129 38.9285 104.521C38.9366 102.645 41.0146 102.433 41.9066 102.429L56.4466 102.421ZM51.1056 19.8842C66.5576 19.8842 80.2436 31.7502 82.2636 46.8962C83.7436 58.0282 80.7936 67.5182 73.4896 75.1042C73.1696 75.4342 72.8656 75.7682 72.5616 76.1022C71.9396 76.7862 71.3096 77.4682 70.6276 78.0982C67.8116 80.7122 66.4716 83.9162 66.4136 88.1762C66.3996 89.1302 66.3596 90.0822 66.3176 91.0342L66.2456 92.7482C66.1156 96.2922 63.8456 98.5102 60.3216 98.5322C59.1096 98.5382 57.8976 98.5402 56.6856 98.5402L42.0636 98.5362C38.1096 98.5282 35.9276 96.4242 35.7456 92.4482C35.6656 90.6262 35.5296 88.8122 35.3936 86.9962L35.2456 85.0262C35.1056 83.1222 34.2596 81.3282 32.6576 79.5402C31.8076 78.5862 30.9416 77.6482 30.0756 76.7122C29.0416 75.5902 28.0716 74.5422 27.1276 73.4742C20.0816 65.5322 17.5516 53.4602 20.6756 42.7202C23.7736 32.0862 31.8316 24.1882 42.7876 21.0522C45.4916 20.2782 48.2916 19.8842 51.1056 19.8842ZM19.836 79.6614L22.842 82.6674L21.614 83.8994C19.97 85.5514 18.326 87.2034 16.666 88.8374C15.608 89.8794 14.342 89.9734 13.428 89.0574C12.522 88.1334 12.624 86.8874 13.694 85.8074C14.832 84.6594 15.976 83.5154 17.122 82.3734L19.836 79.6614ZM82.1486 79.6614L84.8626 82.3734C86.0086 83.5154 87.1526 84.6594 88.2906 85.8074C89.3606 86.8874 89.4626 88.1334 88.5566 89.0574C87.6426 89.9734 86.3766 89.8794 85.3186 88.8374C83.6586 87.2034 82.0146 85.5514 80.3706 83.8994L79.1426 82.6674L82.1486 79.6614ZM9.436 48.5628L11.176 48.5668V52.8168H7.338C5.72 52.8188 4.104 52.8208 2.486 52.8148C0.966 52.8088 0.012 51.9988 0 50.7028C0 49.4108 0.959999 48.5808 2.446 48.5688C4.776 48.5528 7.106 48.5568 9.436 48.5628ZM97.2088 48.5588L99.5388 48.5688C101.025 48.5808 101.985 49.4108 101.985 50.7028C101.973 51.9988 101.019 52.8088 99.4988 52.8148C97.8808 52.8208 96.2648 52.8188 94.6468 52.8168H90.8088V48.5668L92.5488 48.5628C94.8788 48.5568 97.2088 48.5528 99.5388 48.5688L97.2088 48.5588ZM16.666 14.6554C18.326 16.2894 19.97 17.9414 21.614 19.5934L22.842 20.8254L19.836 23.8314L17.122 21.1194C15.976 19.9774 14.832 18.8334 13.694 17.6854C12.624 16.6054 12.522 15.3594 13.428 14.4354C14.342 13.5194 15.608 13.6134 16.666 14.6554ZM85.3186 14.6554C86.3766 13.6134 87.6426 13.5194 88.5566 14.4354C89.4626 15.3594 89.3606 16.6054 88.2906 17.6854C87.1526 18.8334 86.0086 19.9774 84.8626 21.1194L82.1486 23.8314L79.1426 20.8254L80.3706 19.5934C82.0146 17.9414 83.6586 16.2894 85.3186 14.6554ZM50.9774 0C52.2694 0 53.0994 0.96 53.1114 2.446C53.1294 4.776 53.1234 7.106 53.1174 9.438L53.1134 11.176H48.8634V7.34C48.8614 5.722 48.8594 4.104 48.8654 2.488C48.8734 0.966 49.6814 0.014 50.9774 0Z" fill="url(#paint0_linear)"/>
<defs>
<linearGradient id="paint0_linear" x1="50.9924" y1="0.416849" x2="50.9924" y2="119.792" gradientUnits="userSpaceOnUse">
<stop stop-color="#FF6444"/>
<stop offset="0.999129" stop-color="#FF444F"/>
</linearGradient>
</defs>
</svg>

<?xml version="1.0" encoding="UTF-8"?>
<svg fill="none" viewBox="0 0 102 120" xmlns="http://www.w3.org/2000/svg">
<path d="m51.106 23.884c-2.442 0-4.87 0.34-7.216 1.014-9.608 2.75-16.668 9.652-19.374 18.94-2.75 9.452-0.55 20.044 5.604 26.982 0.93 1.048 1.878 2.076 2.828 3.106 0.948 1.022 1.828 1.978 2.694 2.948 2.21 2.47 3.386 5.04 3.592 7.858l0.134 1.782c0.154 2.038 0.292 3.894 0.374 5.754 0.084 1.862 0.498 2.264 2.324 2.268l14.622 4e-3c1.204 0 2.406-2e-3 3.612-8e-3 1.368-8e-3 1.898-0.534 1.95-1.94l0.064-1.556c0.048-1.088 0.088-2.002 0.1-2.914 0.072-5.356 1.87-9.594 5.496-12.956 0.598-0.554 1.148-1.156 1.694-1.758 0.336-0.366 0.668-0.732 1.01-1.084 6.41-6.656 8.998-15.036 7.686-24.898-1.762-13.202-13.706-23.542-27.194-23.542zm-6.7022 91.854 13.212 2e-3c1.28 4e-3 2.05 0.786 2.0601 2.088 0.0039 0.6-0.1581 1.114-0.4701 1.486-0.374 0.442-0.934 0.678-1.628 0.678l-6.752 8e-3 -6.462-8e-3c-1.256-2e-3 -2.044-0.812-2.0541-2.112-0.0039-0.61 0.1501-1.106 0.4561-1.472 0.366-0.436 0.932-0.666 1.638-0.67zm14.837-6.392c1.594 6e-3 2.552 0.788 2.5661 2.09 0.0059 0.6-0.1961 1.114-0.5861 1.486-0.464 0.442-1.164 0.676-2.026 0.678l-8.41 8e-3 -8.048-8e-3c-1.564-4e-3 -2.544-0.812-2.5581-2.112-0.0059-0.61 0.1841-1.108 0.5681-1.474 0.454-0.434 1.16-0.666 2.038-0.668h16.456zm-2.7938-6.925c1.228 0 2.454 2e-3 3.682 8e-3 0.994 6e-3 1.79 0.238 2.3 0.672 0.422 0.362 0.634 0.848 0.6281 1.452-0.0101 1.304-1.1521 2.118-2.9801 2.122-3.018 6e-3 -6.036 8e-3 -9.054 8e-3l-9.046-6e-3c-1.044-2e-3 -1.876-0.24-2.406-0.69-0.43-0.364-0.646-0.858-0.6421-1.466 0.0081-1.876 2.0861-2.088 2.9781-2.092l14.54-8e-3zm-5.341-82.537c15.452 0 29.138 11.866 31.158 27.012 1.48 11.132-1.47 20.622-8.774 28.208-0.32 0.33-0.624 0.664-0.928 0.998-0.622 0.684-1.252 1.366-1.934 1.996-2.816 2.614-4.156 5.818-4.214 10.078-0.014 0.954-0.054 1.906-0.096 2.858l-0.072 1.714c-0.13 3.544-2.4 5.762-5.924 5.784-1.212 6e-3 -2.424 8e-3 -3.636 8e-3l-14.622-4e-3c-3.954-8e-3 -6.136-2.112-6.318-6.088-0.08-1.822-0.216-3.636-0.352-5.452l-0.148-1.97c-0.14-1.904-0.986-3.698-2.588-5.486-0.85-0.954-1.716-1.892-2.582-2.828-1.034-1.122-2.004-2.17-2.948-3.238-7.046-7.942-9.576-20.014-6.452-30.754 3.098-10.634 11.156-18.532 22.112-21.668 2.704-0.774 5.504-1.168 8.318-1.168zm-31.27 59.777 3.006 3.006-1.228 1.232c-1.644 1.652-3.288 3.304-4.948 4.938-1.058 1.042-2.324 1.136-3.238 0.22-0.906-0.924-0.804-2.17 0.266-3.25 1.138-1.148 2.282-2.292 3.428-3.434l2.714-2.712zm62.313 0 2.714 2.712c1.146 1.142 2.29 2.286 3.428 3.434 1.07 1.08 1.172 2.326 0.266 3.25-0.914 0.916-2.18 0.822-3.238-0.22-1.66-1.634-3.304-3.286-4.948-4.938l-1.228-1.232 3.006-3.006zm-72.713-31.099 1.74 4e-3v4.25h-3.838c-1.618 2e-3 -3.234 4e-3 -4.852-2e-3 -1.52-6e-3 -2.474-0.816-2.486-2.112 0-1.292 0.96-2.122 2.446-2.134 2.33-0.016 4.66-0.012 6.99-6e-3zm87.773-4e-3 2.33 0.01c1.4862 0.012 2.4462 0.842 2.4462 2.134-0.012 1.296-0.966 2.106-2.4862 2.112-1.618 6e-3 -3.234 4e-3 -4.852 2e-3h-3.838v-4.25l1.74-4e-3c2.33-6e-3 4.66-0.01 6.99 6e-3l-2.33-0.01zm-80.543-33.903c1.66 1.634 3.304 3.286 4.948 4.938l1.228 1.232-3.006 3.006-2.714-2.712c-1.146-1.142-2.29-2.286-3.428-3.434-1.07-1.08-1.172-2.326-0.266-3.25 0.914-0.916 2.18-0.822 3.238 0.22zm68.653 0c1.058-1.042 2.324-1.136 3.238-0.22 0.906 0.924 0.804 2.17-0.266 3.25-1.138 1.148-2.282 2.292-3.428 3.434l-2.714 2.712-3.006-3.006 1.228-1.232c1.644-1.652 3.288-3.304 4.948-4.938zm-34.341-14.655c1.292 0 2.122 0.96 2.134 2.446 0.018 2.33 0.012 4.66 6e-3 6.992l-4e-3 1.738h-4.25v-3.836c-2e-3 -1.618-4e-3 -3.236 2e-3 -4.852 8e-3 -1.522 0.816-2.474 2.112-2.488z" clip-rule="evenodd" fill="url(#a)" fill-rule="evenodd"/>
<defs>
<linearGradient id="a" x1="50.992" x2="50.992" y1=".41685" y2="119.79" gradientUnits="userSpaceOnUse">
<stop stop-color="#FF6444" offset="0"/>
<stop stop-color="#FF444F" offset=".99913"/>
</linearGradient>
</defs>
</svg>
